Infinity-Icons/Infinity-Dark-Icons/apps/48/kdiamond.svg

<?xml version="1.0" encoding="UTF-8" standalone="no"?>
<svg
   width="48"
   height="48"
   version="1.1"
   id="svg40"
   sodipodi:docname="kdiamond.svg"
   inkscape:version="1.2.1 (9c6d41e410, 2022-07-14)"
   xmlns:inkscape="http://www.inkscape.org/namespaces/inkscape"
   xmlns:sodipodi="http://sodipodi.sourceforge.net/DTD/sodipodi-0.dtd"
   xmlns:xlink="http://www.w3.org/1999/xlink"
   xmlns="http://www.w3.org/2000/svg"
   xmlns:svg="http://www.w3.org/2000/svg">
  <sodipodi:namedview
     id="namedview42"
     pagecolor="#ffffff"
     bordercolor="#666666"
     borderopacity="1.0"
     inkscape:showpageshadow="2"
     inkscape:pageopacity="0.0"
     inkscape:pagecheckerboard="0"
     inkscape:deskcolor="#d1d1d1"
     showgrid="false"
     inkscape:zoom="4.9166667"
     inkscape:cx="24"
     inkscape:cy="24"
     inkscape:window-width="1920"
     inkscape:window-height="1009"
     inkscape:window-x="0"
     inkscape:window-y="0"
     inkscape:window-maximized="1"
     inkscape:current-layer="svg40" />
  <defs
     id="defs26">
    <linearGradient
       id="linearGradient4317">
      <stop
         style="stop-color:#3b85b5;stop-opacity:1"
         offset="0"
         id="stop2" />
      <stop
         style="stop-color:#7cbcec;stop-opacity:1"
         offset="1"
         id="stop4" />
    </linearGradient>
    <linearGradient
       id="linearGradient4309">
      <stop
         style="stop-color:#3bb566;stop-opacity:1;"
         offset="0"
         id="stop7" />
      <stop
         style="stop-color:#7ceca4;stop-opacity:1"
         offset="1"
         id="stop9" />
    </linearGradient>
    <linearGradient
       id="linearGradient4301">
      <stop
         style="stop-color:#ffa92d;stop-opacity:1;"
         offset="0"
         id="stop12" />
      <stop
         style="stop-color:#ffc169;stop-opacity:1"
         offset="1"
         id="stop14" />
    </linearGradient>
    <linearGradient
       id="linearGradient4293">
      <stop
         style="stop-color:#bf4231;stop-opacity:1;"
         offset="0"
         id="stop17" />
      <stop
         style="stop-color:#f58273;stop-opacity:1"
         offset="1"
         id="stop19" />
    </linearGradient>
    <linearGradient
       xlink:href="#linearGradient4293"
       id="linearGradient4299"
       x1="16"
       y1="20"
       x2="7"
       y2="7"
       gradientUnits="userSpaceOnUse" />
    <linearGradient
       xlink:href="#linearGradient4301"
       id="linearGradient4307"
       x1="39"
       y1="20"
       x2="30"
       y2="7"
       gradientUnits="userSpaceOnUse" />
    <linearGradient
       xlink:href="#linearGradient4309"
       id="linearGradient4315"
       x1="17"
       y1="40.124"
       x2="10"
       y2="28"
       gradientUnits="userSpaceOnUse" />
    <linearGradient
       xlink:href="#linearGradient4317"
       id="linearGradient4323"
       x1="38"
       y1="42"
       x2="30"
       y2="29"
       gradientUnits="userSpaceOnUse" />
    <linearGradient
       gradientTransform="matrix(1.0499636,0,0,1.0499041,-452.98598,-525.93779)"
       gradientUnits="userSpaceOnUse"
       x2="426.69501"
       y2="499.92099"
       y1="547.67499"
       id="a-6"
       x1="389.32001">
      <stop
         stop-color="#18222a"
         style="stop-color:#1e2b35;stop-opacity:1"
         id="stop216" />
      <stop
         stop-color="#566069"
         offset="1"
         style="stop-color:#6d7983;stop-opacity:1"
         id="stop218" />
    </linearGradient>
    <linearGradient
       id="linearGradient4235">
      <stop
         style="stop-color:#abdaf9;stop-opacity:1"
         offset="0"
         id="stop7-9" />
      <stop
         style="stop-color:#7cbcec;stop-opacity:1"
         offset="1"
         id="stop9-3" />
    </linearGradient>
    <linearGradient
       id="linearGradient4255">
      <stop
         style="stop-color:#000000;stop-opacity:1;"
         offset="0"
         id="stop2-1" />
      <stop
         style="stop-color:#000000;stop-opacity:0;"
         offset="1"
         id="stop4-9" />
    </linearGradient>
    <linearGradient
       id="linearGradient4216">
      <stop
         style="stop-color:#c42c2c;stop-opacity:1"
         offset="0"
         id="stop17-4" />
      <stop
         style="stop-color:#f36856;stop-opacity:1"
         offset="1"
         id="stop19-7" />
    </linearGradient>
    <linearGradient
       id="linearGradient4224">
      <stop
         style="stop-color:#375a7d;stop-opacity:1"
         offset="0"
         id="stop12-8" />
      <stop
         style="stop-color:#54a3d8;stop-opacity:1"
         offset="1"
         id="stop14-4" />
    </linearGradient>
    <linearGradient
       xlink:href="#linearGradient4293"
       id="linearGradient4299-5"
       x1="16"
       y1="20"
       x2="7"
       y2="7"
       gradientUnits="userSpaceOnUse" />
    <linearGradient
       xlink:href="#linearGradient4301"
       id="linearGradient4307-6"
       x1="39"
       y1="20"
       x2="30"
       y2="7"
       gradientUnits="userSpaceOnUse" />
    <linearGradient
       xlink:href="#linearGradient4309"
       id="linearGradient4315-6"
       x1="17"
       y1="40.124001"
       x2="10"
       y2="28"
       gradientUnits="userSpaceOnUse" />
    <linearGradient
       xlink:href="#linearGradient4317"
       id="linearGradient4323-0"
       x1="38"
       y1="42"
       x2="30"
       y2="29"
       gradientUnits="userSpaceOnUse" />
  </defs>
  <rect
     width="41.99855"
     x="-45.000397"
     y="3.0039384"
     rx="20.999275"
     height="41.99617"
     transform="scale(-1,1)"
     style="display:inline;fill:url(#a-6);stroke-width:2.93982;stroke-opacity:0.55"
     id="rect223"
     ry="20.998085" />
  <path
     style="display:inline;opacity:0.3;fill:#000000;fill-opacity:1;stroke-width:2.93982;stroke-opacity:0.55"
     d="m 3.0133075,23.477117 c -0.0042,0.175027 -0.0126,0.349055 -0.0126,0.525082 0,11.633028 9.3656955,20.998099 20.9992145,20.998099 11.633531,0 20.99937,-9.365071 20.99937,-20.998099 0,-0.176027 -0.008,-0.349055 -0.0126,-0.525082 -0.2773,11.388289 -9.53376,20.473116 -20.986761,20.473116 -11.457195,0 -20.7094525,-9.084827 -20.9866105,-20.473116"
     id="path225" />
  <path
     d="m 3.0133075,24.523181 c -0.0042,-0.175027 -0.0126,-0.348055 -0.0126,-0.525082 C 3.0007075,12.365171 12.366403,3 23.999922,3 c 11.633531,0 20.99937,9.365171 20.99937,20.998099 0,0.176027 -0.008,0.350055 -0.0126,0.525082 -0.2773,-11.388289 -9.53376,-20.473116 -20.986761,-20.473116 -11.457195,0 -20.7094515,9.084827 -20.9866095,20.473116"
     style="display:inline;opacity:0.3;fill:#ffffff;fill-opacity:1;stroke-width:2.93982;stroke-opacity:0.55"
     id="path229" />
  <g
     id="g38-5"
     transform="matrix(0.75000016,0,0,0.75000016,5.842996,6.3499985)">
    <path
       style="fill:url(#linearGradient4299-5);fill-opacity:1;stroke:#808080;stroke-width:0;stroke-linecap:round;stroke-linejoin:round;stroke-miterlimit:4;stroke-dasharray:none;stroke-opacity:1"
       d="m 12.999074,4.0000048 c -0.242518,0 -0.484965,0.092118 -0.670794,0.2779369 L 4.2787495,12.32885 c -0.3716597,0.371638 -0.3716597,0.969871 0,1.341509 l 8.0495305,8.050908 c 0.371659,0.371638 0.971781,0.371638 1.34344,0 l 8.04953,-8.050908 c 0.371661,-0.371638 0.371661,-0.969871 0,-1.341509 L 13.67172,4.2779417 C 13.485891,4.0921228 13.241591,4.0000048 12.999074,4.0000048 Z"
       id="path28-5" />
    <path
       d="m 34.999074,4.0000048 c -0.242518,0 -0.484965,0.092118 -0.670794,0.2779369 L 26.278749,12.32885 c -0.371659,0.371638 -0.371659,0.969871 0,1.341509 l 8.049531,8.050908 c 0.371659,0.371638 0.971781,0.371638 1.34344,0 l 8.04953,-8.050908 c 0.371661,-0.371638 0.371661,-0.969871 0,-1.341509 L 35.67172,4.2779417 C 35.485891,4.0921228 35.241591,4.0000048 34.999074,4.0000048 Z"
       style="fill:url(#linearGradient4307-6);fill-opacity:1;stroke:#808080;stroke-width:0;stroke-linecap:round;stroke-linejoin:round;stroke-miterlimit:4;stroke-dasharray:none;stroke-opacity:1"
       id="path30-4" />
    <path
       d="m 12.999074,26.000005 c -0.242518,0 -0.484965,0.09212 -0.670794,0.277937 L 4.2787495,34.32885 c -0.3716597,0.371638 -0.3716597,0.969871 0,1.341509 l 8.0495305,8.050908 c 0.371659,0.371638 0.971781,0.371638 1.34344,0 l 8.04953,-8.050908 c 0.371661,-0.371638 0.371661,-0.969871 0,-1.341509 l -8.04953,-8.050908 c -0.185829,-0.185819 -0.430129,-0.277937 -0.672646,-0.277937 z"
       style="fill:url(#linearGradient4315-6);fill-opacity:1;stroke:#808080;stroke-width:0;stroke-linecap:round;stroke-linejoin:round;stroke-miterlimit:4;stroke-dasharray:none;stroke-opacity:1"
       id="path32-7" />
    <path
       style="fill:url(#linearGradient4323-0);fill-opacity:1;stroke:#808080;stroke-width:0;stroke-linecap:round;stroke-linejoin:round;stroke-miterlimit:4;stroke-dasharray:none;stroke-opacity:1"
       d="m 34.999074,26.000005 c -0.242518,0 -0.484965,0.09212 -0.670794,0.277937 l -8.049531,8.050908 c -0.371659,0.371638 -0.371659,0.969871 0,1.341509 l 8.049531,8.050908 c 0.371659,0.371638 0.971781,0.371638 1.34344,0 l 8.04953,-8.050908 c 0.371661,-0.371638 0.371661,-0.969871 0,-1.341509 l -8.04953,-8.050908 c -0.185829,-0.185819 -0.430129,-0.277937 -0.672646,-0.277937 z"
       id="path34-6" />
    <path
       style="opacity:0.15;fill:#000000;fill-opacity:1;stroke:#808080;stroke-width:0;stroke-linecap:round;stroke-linejoin:round;stroke-miterlimit:4;stroke-dasharray:none;stroke-opacity:1"
       d="m 4.1660156,12.5 c -0.2334979,0.367121 -0.2077215,0.848938 0.1132813,1.169922 l 8.0488281,8.050781 c 0.371659,0.371638 0.972091,0.371638 1.34375,0 l 8.048828,-8.050781 c 0.321004,-0.320984 0.34678,-0.802801 0.113281,-1.169922 -0.03666,0.05743 -0.06302,0.119668 -0.113281,0.169922 l -8.048828,8.050781 c -0.371659,0.371638 -0.972091,0.371638 -1.34375,0 L 4.2792969,12.669922 C 4.2290403,12.619668 4.2026806,12.557429 4.1660156,12.5 Z m 22.0000004,0 c -0.233498,0.367121 -0.207721,0.848938 0.113281,1.169922 l 8.048828,8.050781 c 0.371659,0.371638 0.972091,0.371638 1.34375,0 l 8.048828,-8.050781 c 0.321004,-0.320984 0.34678,-0.802801 0.113281,-1.169922 -0.03666,0.05743 -0.06302,0.119668 -0.113281,0.169922 l -8.048828,8.050781 c -0.371659,0.371638 -0.972091,0.371638 -1.34375,0 L 26.279297,12.669922 C 26.22904,12.619668 26.202681,12.557429 26.166016,12.5 Z m -22.0000004,22 c -0.2334979,0.367121 -0.2077215,0.848938 0.1132813,1.169922 l 8.0488281,8.050781 c 0.371659,0.371638 0.972091,0.371638 1.34375,0 l 8.048828,-8.050781 c 0.321004,-0.320984 0.34678,-0.802801 0.113281,-1.169922 -0.03666,0.05743 -0.06302,0.119668 -0.113281,0.169922 l -8.048828,8.050781 c -0.371659,0.371638 -0.972091,0.371638 -1.34375,0 L 4.2792969,34.669922 C 4.2290403,34.619668 4.2026806,34.557429 4.1660156,34.5 Z m 22.0000004,0 c -0.233498,0.367121 -0.207721,0.848938 0.113281,1.169922 l 8.048828,8.050781 c 0.371659,0.371638 0.972091,0.371638 1.34375,0 l 8.048828,-8.050781 c 0.321004,-0.320984 0.34678,-0.802801 0.113281,-1.169922 -0.03666,0.05743 -0.06302,0.119668 -0.113281,0.169922 l -8.048828,8.050781 c -0.371659,0.371638 -0.972091,0.371638 -1.34375,0 L 26.279297,34.669922 C 26.22904,34.619668 26.202681,34.557429 26.166016,34.5 Z"
       id="path36-5" />
  </g>
</svg>

<?xml version="1.0" encoding="UTF-8" standalone="no"?>
<svg xmlns="http://www.w3.org/2000/svg" xmlns:xlink="http://www.w3.org/1999/xlink" width="48" height="48" version="1.1">
 <defs>
  <linearGradient id="linearGradient4317">
   <stop style="stop-color:#3b85b5;stop-opacity:1" offset="0"/>
   <stop style="stop-color:#7cbcec;stop-opacity:1" offset="1"/>
  </linearGradient>
  <linearGradient id="linearGradient4309">
   <stop style="stop-color:#3bb566;stop-opacity:1;" offset="0"/>
   <stop style="stop-color:#7ceca4;stop-opacity:1" offset="1"/>
  </linearGradient>
  <linearGradient id="linearGradient4301">
   <stop style="stop-color:#ffa92d;stop-opacity:1;" offset="0"/>
   <stop style="stop-color:#ffc169;stop-opacity:1" offset="1"/>
  </linearGradient>
  <linearGradient id="linearGradient4293">
   <stop style="stop-color:#bf4231;stop-opacity:1;" offset="0"/>
   <stop style="stop-color:#f58273;stop-opacity:1" offset="1"/>
  </linearGradient>
  <linearGradient xlink:href="#linearGradient4293" id="linearGradient4299" x1="16" y1="20" x2="7" y2="7" gradientUnits="userSpaceOnUse"/>
  <linearGradient xlink:href="#linearGradient4301" id="linearGradient4307" x1="39" y1="20" x2="30" y2="7" gradientUnits="userSpaceOnUse"/>
  <linearGradient xlink:href="#linearGradient4309" id="linearGradient4315" x1="17" y1="40.124" x2="10" y2="28" gradientUnits="userSpaceOnUse"/>
  <linearGradient xlink:href="#linearGradient4317" id="linearGradient4323" x1="38" y1="42" x2="30" y2="29" gradientUnits="userSpaceOnUse"/>
 </defs>
 <g>
  <path style="fill:url(#linearGradient4299);fill-opacity:1;stroke:#808080;stroke-width:0;stroke-linecap:round;stroke-linejoin:round;stroke-miterlimit:4;stroke-dasharray:none;stroke-opacity:1" d="m 12.999074,4.0000048 c -0.242518,0 -0.484965,0.092118 -0.670794,0.2779369 L 4.2787495,12.32885 c -0.3716597,0.371638 -0.3716597,0.969871 0,1.341509 l 8.0495305,8.050908 c 0.371659,0.371638 0.971781,0.371638 1.34344,0 l 8.04953,-8.050908 c 0.371661,-0.371638 0.371661,-0.969871 0,-1.341509 L 13.67172,4.2779417 C 13.485891,4.0921228 13.241591,4.0000048 12.999074,4.0000048 Z"/>
  <path d="m 34.999074,4.0000048 c -0.242518,0 -0.484965,0.092118 -0.670794,0.2779369 L 26.278749,12.32885 c -0.371659,0.371638 -0.371659,0.969871 0,1.341509 l 8.049531,8.050908 c 0.371659,0.371638 0.971781,0.371638 1.34344,0 l 8.04953,-8.050908 c 0.371661,-0.371638 0.371661,-0.969871 0,-1.341509 L 35.67172,4.2779417 C 35.485891,4.0921228 35.241591,4.0000048 34.999074,4.0000048 Z" style="fill:url(#linearGradient4307);fill-opacity:1;stroke:#808080;stroke-width:0;stroke-linecap:round;stroke-linejoin:round;stroke-miterlimit:4;stroke-dasharray:none;stroke-opacity:1"/>
  <path d="m 12.999074,26.000005 c -0.242518,0 -0.484965,0.09212 -0.670794,0.277937 L 4.2787495,34.32885 c -0.3716597,0.371638 -0.3716597,0.969871 0,1.341509 l 8.0495305,8.050908 c 0.371659,0.371638 0.971781,0.371638 1.34344,0 l 8.04953,-8.050908 c 0.371661,-0.371638 0.371661,-0.969871 0,-1.341509 l -8.04953,-8.050908 c -0.185829,-0.185819 -0.430129,-0.277937 -0.672646,-0.277937 z" style="fill:url(#linearGradient4315);fill-opacity:1;stroke:#808080;stroke-width:0;stroke-linecap:round;stroke-linejoin:round;stroke-miterlimit:4;stroke-dasharray:none;stroke-opacity:1"/>
  <path style="fill:url(#linearGradient4323);fill-opacity:1;stroke:#808080;stroke-width:0;stroke-linecap:round;stroke-linejoin:round;stroke-miterlimit:4;stroke-dasharray:none;stroke-opacity:1" d="m 34.999074,26.000005 c -0.242518,0 -0.484965,0.09212 -0.670794,0.277937 l -8.049531,8.050908 c -0.371659,0.371638 -0.371659,0.969871 0,1.341509 l 8.049531,8.050908 c 0.371659,0.371638 0.971781,0.371638 1.34344,0 l 8.04953,-8.050908 c 0.371661,-0.371638 0.371661,-0.969871 0,-1.341509 l -8.04953,-8.050908 c -0.185829,-0.185819 -0.430129,-0.277937 -0.672646,-0.277937 z"/>
  <path style="fill:#000000;fill-opacity:1;stroke:#808080;stroke-width:0;stroke-linecap:round;stroke-linejoin:round;stroke-miterlimit:4;stroke-dasharray:none;stroke-opacity:1;opacity:0.15" d="M 4.1660156 12.5 C 3.9325177 12.867121 3.9582941 13.348938 4.2792969 13.669922 L 12.328125 21.720703 C 12.699784 22.092341 13.300216 22.092341 13.671875 21.720703 L 21.720703 13.669922 C 22.041707 13.348938 22.067483 12.867121 21.833984 12.5 C 21.797319 12.557429 21.77096 12.619668 21.720703 12.669922 L 13.671875 20.720703 C 13.300216 21.092341 12.699784 21.092341 12.328125 20.720703 L 4.2792969 12.669922 C 4.2290403 12.619668 4.2026806 12.557429 4.1660156 12.5 z M 26.166016 12.5 C 25.932518 12.867121 25.958295 13.348938 26.279297 13.669922 L 34.328125 21.720703 C 34.699784 22.092341 35.300216 22.092341 35.671875 21.720703 L 43.720703 13.669922 C 44.041707 13.348938 44.067483 12.867121 43.833984 12.5 C 43.797319 12.557429 43.77096 12.619668 43.720703 12.669922 L 35.671875 20.720703 C 35.300216 21.092341 34.699784 21.092341 34.328125 20.720703 L 26.279297 12.669922 C 26.22904 12.619668 26.202681 12.557429 26.166016 12.5 z M 4.1660156 34.5 C 3.9325177 34.867121 3.9582941 35.348938 4.2792969 35.669922 L 12.328125 43.720703 C 12.699784 44.092341 13.300216 44.092341 13.671875 43.720703 L 21.720703 35.669922 C 22.041707 35.348938 22.067483 34.867121 21.833984 34.5 C 21.797319 34.557429 21.77096 34.619668 21.720703 34.669922 L 13.671875 42.720703 C 13.300216 43.092341 12.699784 43.092341 12.328125 42.720703 L 4.2792969 34.669922 C 4.2290403 34.619668 4.2026806 34.557429 4.1660156 34.5 z M 26.166016 34.5 C 25.932518 34.867121 25.958295 35.348938 26.279297 35.669922 L 34.328125 43.720703 C 34.699784 44.092341 35.300216 44.092341 35.671875 43.720703 L 43.720703 35.669922 C 44.041707 35.348938 44.067483 34.867121 43.833984 34.5 C 43.797319 34.557429 43.77096 34.619668 43.720703 34.669922 L 35.671875 42.720703 C 35.300216 43.092341 34.699784 43.092341 34.328125 42.720703 L 26.279297 34.669922 C 26.22904 34.619668 26.202681 34.557429 26.166016 34.5 z"/>
 </g>
</svg>
